icon_installer/data/icons/scalable/actions/show-question-round-symbolic.svg

<?xml version="1.0" encoding="UTF-8"?>
<svg height="16px" viewBox="0 0 16 16" width="16px" xmlns="http://www.w3.org/2000/svg">
    <path d="m 8 0.03125 c -4.402344 0 -7.96875 3.566406 -7.96875 7.96875 s 3.566406 7.96875 7.96875 7.96875 s 7.96875 -3.566406 7.96875 -7.96875 s -3.566406 -7.96875 -7.96875 -7.96875 z m 0.152344 2.976562 c 0.726562 0.035157 1.433594 0.335938 1.96875 0.871094 c 0.855468 0.855469 1.113281 2.152344 0.648437 3.269532 c -0.328125 0.796874 -0.984375 1.390624 -1.769531 1.671874 v 1.179688 h -2 v -2 c 0 -0.550781 0.449219 -1 1 -1 c 0.40625 0 0.769531 -0.242188 0.921875 -0.617188 c 0.15625 -0.375 0.074219 -0.800781 -0.214844 -1.089843 c -0.289062 -0.289063 -0.714843 -0.371094 -1.089843 -0.214844 c -0.375 0.152344 -0.617188 0.515625 -0.617188 0.921875 h -2 c 0 -1.210938 0.734375 -2.308594 1.851562 -2.769531 c 0.417969 -0.175781 0.863282 -0.246094 1.300782 -0.222657 z m -0.152344 7.992188 c 0.550781 0 1 0.449219 1 1 s -0.449219 1 -1 1 s -1 -0.449219 -1 -1 s 0.449219 -1 1 -1 z m 0 0" fill="#222222"/>
</svg>

<svg xmlns="http://www.w3.org/2000/svg" width="16" height="16"><path fill="#222" d="M8 .031C3.598.031.031 3.598.031 8S3.598 15.969 8 15.969 15.969 12.402 15.969 8 12.402.031 8 .031zm.152 2.977a2.99 2.99 0 0 1 1.97.87 3.004 3.004 0 0 1 .648 3.27A2.998 2.998 0 0 1 9 8.82V10H7V8c0-.55.45-1 1-1a.99.99 0 0 0 .922-.617.992.992 0 0 0-.215-1.09.992.992 0 0 0-1.09-.215A.99.99 0 0 0 7 6H5c0-1.21.734-2.309 1.852-2.77a2.945 2.945 0 0 1 1.3-.222zM8 11c.55 0 1 .45 1 1s-.45 1-1 1-1-.45-1-1 .45-1 1-1zm0 0"/></svg>
